icon/lg/proofy.svg

<?xml version="1.0" encoding="UTF-8"?>
<svg viewBox="0 0 256 261" version="1.1" xmlns="http://www.w3.org/2000/svg" xmlns:xlink="http://www.w3.org/1999/xlink" preserveAspectRatio="xMidYMid" height="1em" width="1em">
  <g>
    <path d="M141.0316,-0.0001 L116.5006,-0.0001 L12.2546,-0.0001 C6.1276,-0.0001 -0.0004,6.1269 -0.0004,12.2689 L-0.0004,174.7689 C-0.0004,182.4129 4.6026,191.6339 10.7226,194.6969 L118.0316,257.5539 C124.1666,262.1419 133.3646,262.1419 137.9676,257.5539 L245.2696,194.6969 C251.3966,190.0949 255.9996,182.4279 255.9996,174.7689 L255.9996,12.2689 C255.9996,4.6029 249.8656,0.0069 243.7376,0.0069 L141.0316,0.0069 L141.0316,-0.0001 Z" fill="#13C779"/>
    <path d="M200.8173,72.0549 L128.7693,114.9679 L56.7223,72.0549 L200.8173,72.0549 Z M200.8173,144.1029 L128.7693,187.0309 L56.7223,144.1029 L56.7223,88.9119 L128.7623,131.8409 L200.8103,88.9119 L200.8103,144.1029 L200.8173,144.1029 Z M206.9523,56.7289 L128.7623,56.7289 L50.5803,56.7289 C47.5163,56.7289 44.4523,59.7929 44.4523,64.3879 L44.4523,67.4599 L44.4523,144.1179 C44.4523,147.1889 44.4523,153.3159 50.5803,156.3649 C56.7143,160.9679 128.7623,203.8959 128.7623,203.8959 C128.7623,203.8959 200.8103,160.9819 206.9523,156.3649 C213.0723,151.7769 213.0723,147.1809 213.0723,144.1179 L213.0723,67.4599 L213.0723,64.3879 C213.0723,59.7929 211.5473,56.7289 206.9523,56.7289 L206.9523,56.7289 Z" fill="#FFFFFF"/>
    <path d="M128.7622,-0.0001 L116.5072,-0.0001 L12.2542,-0.0001 C6.1272,-0.0001 0.0002,6.1269 0.0002,12.2689 L0.0002,174.7689 C0.0002,182.4129 4.6032,191.6339 10.7232,194.6969 L118.0322,257.5539 C121.0952,259.0789 124.1672,260.6179 128.7552,260.6179 L128.7622,-0.0001 Z" fill-opacity="0.1" fill="#231F1F"/>
  </g>
</svg>

<svg width="256" height="261" xmlns="http://www.w3.org/2000/svg" preserveAspectRatio="xMidYMid"><path d="M141.032 0H12.255C6.128 0 0 6.127 0 12.269v162.5c0 7.644 4.603 16.865 10.723 19.928l107.309 62.857c6.135 4.588 15.333 4.588 19.936 0l107.302-62.857c6.127-4.602 10.73-12.27 10.73-19.928v-162.5C256 4.603 249.866.007 243.738.007H141.032V0Z" fill="#13C779"/><path d="m200.817 72.055-72.048 42.913-72.047-42.913h144.095Zm0 72.048L128.77 187.03l-72.047-42.928V88.912l72.04 42.929 72.048-42.93v55.192h.007Zm6.135-87.374H50.58c-3.064 0-6.128 3.064-6.128 7.659v79.73c0 3.07 0 9.198 6.128 12.247 6.134 4.603 78.182 47.53 78.182 47.53s72.048-42.913 78.19-47.53c6.12-4.588 6.12-9.184 6.12-12.247v-79.73c0-4.595-1.525-7.66-6.12-7.66Z" fill="#FFF"/><path d="M128.762 0H12.254C6.127 0 0 6.127 0 12.269v162.5c0 7.644 4.603 16.865 10.723 19.928l107.31 62.857c3.062 1.525 6.134 3.064 10.722 3.064L128.762 0Z" fill-opacity=".1" fill="#231F1F"/></svg>
